X:28
T: Brown County Breakdown
C: Bill Monroe
S: MandoZine TablEdit Archives
Z: TablEdited by Linda Rhia for MandoZine
L: 1/8
Q: 470
M: 4/4
K: E
 z6 B,C |: "A Part""In the A part, a""E"E2 EE E2 GB | G2 GG G2 Bc | e2 ee e2 gb |
 g2 gg g2 B,C | E2 EE E2 GB | G2 GG G2 Bc | ec BG "A"cB GF
|1 G"B"B GF "E"E2 B,C :|2 G"B"B GF "E"E4 |
|: "B Part""E"B,C EF GF EF | GB zc BG FE | B,C EF GF EF | "B"GB zc B4 |
 "E"B,C EG FE F=G | GB zc B2 Bc | ec BG cB GF |1 B"B"G FD "E"E4 :|2 B"B"G FD "E"E4
|: "C Part""E"[e=d]e [ee][ee] [e2e2] [e2e2] | gb gf e2 Bc | "D"=dc =df e=d Bc | =de =dA "B"B2 BB |
 "E"[e=d]e [ee][ee] [e2e2] [e2e2] | gb gf e2 Bc | =dc B=d cB Ac | "B"BA GF "E"E4 :|
